X: 1
T: String Quartet in C Major opus 20 no 2 mvt 3
C: Franz Joseph Haydn
%%abc-version 2.0
%%abcx-abcm2ps-target-version 5.9.1 (29 Sep 2008)
%%abc-creator hum2abc beta
%%abcx-conversion-date 2021/02/14 14:38:32
%%abc-copyright Copyright (c) 1994, 2000 Center for Computer Assisted Research in the Humanities
%%abc-edited-by Frances Bennion
%%abcx-initial-encoding-date 1997/04/15
%%gracespace 0 6 6
%%humdrum-veritas 4037517054
%%humdrum-veritas-data 694940235
%%linebreak <none>
%%barnumbers 0
L: 1/4
M: 3/4
N: Derived from op20n2-03.krn
Q: "Menuetto: Allegretto"
%%staves [1 2 3 4]
V: 1
V: 2
V: 3 clef=alto
V: 4 clef=bass
K: C
[V:1][e3-G3] [I:setbarnb2] |
[V:2]G3- |
[V:3]C3- |
[V:4]C C C- |
[V:1][eG] f d- |
[V:2]G3- |
[V:3]C D B,- |
[V:4]C D B,- |
[V:1][d-G] e g- |
[V:2]G3- |
[V:3]B, C E- |
[V:4]B, C E- |
[V:1][gG-] f e- |
[V:2]G3- |
[V:3]E D C- |
[V:4]E D C- |
[V:1][eG] d e |
[V:2]G3 |
[V:3]C B, C |
[V:4]C B, C |
[V:1][f3-G3] |
[V:2]B3- |
[V:3]D3- |
[V:4]G,3- |
[V:1]f2 f//e//f//g// |
[V:2]B2 d/e/ |
[V:3]D2 z |
[V:4]G,2 z |
[V:1]a g f |
[V:2]f e d |
[V:3]z3 |
[V:4]z3 |
[V:1]f e ^d |
[V:2]d c B |
[V:3]z3 |
[V:4]z3 |
[V:1]^d3 |
[V:2]B3 |
[V:3]z3 |
[V:4]z3 |
[V:1]e e ^f |
[V:2]c G c |
[V:3]z C A |
[V:4]z C A, |
[V:1]g g a |
[V:2]d3 |
[V:3]G2 D |
[V:4]B, B, ^F, |
[V:1]b b c' |
[V:2]d g a |
[V:3]D z2 |
[V:4]G, z2 |
[V:1]d' b g' |
[V:2]b g z |
[V:3]z3 |
[V:4]z3 |
[V:1]d'2 ^f'/g'/ |
[V:2]B B z |
[V:3]D D z |
[V:4]G, G, z |
[V:1]d' d' ^f'/g'/ |
[V:2]B B z |
[V:3]D D z |
[V:4]G, G, z |
[V:1]d' e'/^f'/ g'/a'/ |
[V:2]z3 |
[V:3]z3 |
[V:4]z3 |
[V:1]b' z B, |
[V:2]z2 B, |
[V:3]z2 B, |
[V:4]z2 B,, |
[V:1]C A, D |
[V:2]C A, D |
[V:3]C A, D |
[V:4]C, A,, D, |
[V:1]G, z2 |
[V:2]G, z2 |
[V:3]G, z2 |
[V:4]G,, z2 |
[V:1][G,2G2] ^F |
[V:2]z3 |
[V:3]z3 |
[V:4]G,, z2 |
[V:1][FG,] E _E |
[V:2]z2 ^f |
[V:3]z2 c |
[V:4]z3 |
[V:1][DG,] G ^F |
[V:2]g z2 |
[V:3]B z2 |
[V:4]G,, z2 |
[V:1][FG,] E _E |
[V:2]z2 ^f |
[V:3]z2 c |
[V:4]z3 |
[V:1][DG,] G ^F |
[V:2]g z2 |
[V:3]B z2 |
[V:4]G,, z2 |
[V:1][FG,] E _E |
[V:2]z2 ^f |
[V:3]z2 c |
[V:4]z3 |
[V:1][DG,] G _E |
[V:2]g z ^f |
[V:3]B z c |
[V:4]G,, z2 |
[V:1][G,D] z2 |
[V:2]g z2 |
[V:3]B z2 |
[V:4]G,, z2 |
[V:1][e3-G3] |
[V:2]G3- |
[V:3]C3- |
[V:4]C C C- |
[V:1][eG-] f d- |
[V:2]G3- |
[V:3]C D B,- |
[V:4]C D B,- |
[V:1][dG-] e g- |
[V:2]G3- |
[V:3]B, C E- |
[V:4]B, C E- |
[V:1][gG-] f e- |
[V:2]G3- |
[V:3]E D C- |
[V:4]E D C- |
[V:1][eG] d e |
[V:2]G3 |
[V:3]C B, C |
[V:4]C B, C |
[V:1][f3-G3] |
[V:2]B3- |
[V:3]D3- |
[V:4]G,3- |
[V:1]f2 f//e//f//g// |
[V:2]B2 d/e/ |
[V:3]D2 z |
[V:4]G,2 z |
[V:1]a g f |
[V:2]f e d |
[V:3]z3 |
[V:4]z3 |
[V:1]f e f |
[V:2]d c d |
[V:3]z3 |
[V:4]z3 |
[V:1]g e/f/ g/a/ |
[V:2]e c/d/ e/f/ |
[V:3]C z2 |
[V:4]E, z2 |
[V:1]_b a g |
[V:2]g f e |
[V:3]z2 C |
[V:4]z2 C |
[V:1]a a b |
[V:2]f c f |
[V:3]C2 D |
[V:4]F, F, D, |
[V:1]c' c' d' |
[V:2]e g g |
[V:3]G,2 F |
[V:4]E, E, B,, |
[V:1]e' e' f' |
[V:2]g c d |
[V:3]E z2 |
[V:4]C, z2 |
[V:1]g' g'/e'/ a'/f'/ |
[V:2]e z2 |
[V:3]z3 |
[V:4]z3 |
[V:1]g'2 c'' |
[V:2]e e z |
[V:3]G G z |
[V:4]C C z |
[V:1]g' g' c'' |
[V:2]e e z |
[V:3]G G z |
[V:4]C C z |
[V:1]g'2 c |
[V:2]z2 E |
[V:3]z2 A |
[V:4]z2 A, |
[V:1]d f B |
[V:2]A F D |
[V:3]F z F |
[V:4]F, z G, |
[V:1]c z2 |
[V:2]E z2 |
[V:3]E z2 |
[V:4]C, z2 |
[V:1]E3- |
[V:2]G,3- |
[V:3]C3- |
[V:4]C,3- |
[V:1]E F D- |
[V:2]G,3- |
[V:3]C D B,- |
[V:4]C, D, B,,- |
[V:1]D E G- |
[V:2]G,3- |
[V:3]B, C E- |
[V:4]B,, C, E,- |
[V:1]G F E |
[V:2]G,3- |
[V:3]E D C |
[V:4]E, D, C, |
[V:1]E D E |
[V:2]G,3 |
[V:3]C B, C |
[V:4]C, B,, C, |
[V:1]F3 |
[V:2]A,3 |
[V:3]F,3- |
[V:4]F,,3 |
[V:1]D C D |
[V:2]B,3 |
[V:3]F,3 |
[V:4]G,,3 |
[V:1]C z2 |
[V:2]C z2 |
[V:3]E, z2 |
[V:4]C,, z2 |
[V:1]G3 |
[V:2]_E3- |
[V:3]C3- |
[V:4]C B, C |
[V:1]F3- |
[V:2]E3 |
[V:3]C3 |
[V:4]_A, _A,, A, |
[V:1]F3 |
[V:2]D3- |
[V:3]_B,3- |
[V:4]_B, _A, B, |
[V:1]_E3- |
[V:2]D3 |
[V:3]B,3 |
[V:4]G, G,, G, |
[V:1]E3 |
[V:2]C3- |
[V:3]_A,3- |
[V:4]_A, G, A, |
[V:1]D3- |
[V:2]C3 |
[V:3]A,3 |
[V:4]F, F,, F, |
[V:1]D3 |
[V:2]B,3 |
[V:3]G,3 |
[V:4]G, F, G, |
[V:1]_E c _B |
[V:2]C c _B |
[V:3]C c _B |
[V:4]_E, C _B, |
[V:1]_A G ^F |
[V:2]_A G ^F |
[V:3]_A G ^F |
[V:4]_A, G, ^F, |
[V:1]G G, d |
[V:2]G G, B |
[V:3]G G, z |
[V:4]G, G,, z |
[V:1]_e z c |
[V:2]c z ^F |
[V:3]z3 |
[V:4]z3 |
[V:1]B z2 |
[V:2]G z2 |
[V:3]G, z2 |
[V:4]G,, z2 |
[V:1]_B3 |
[V:2]_B3 |
[V:3]_B3 |
[V:4]_B,3 |
[V:1]_D3 |
[V:2]_D3 |
[V:3]_D3 |
[V:4]_D,3 |
[V:1]C _B G |
[V:2]C _B G |
[V:3]C _B G |
[V:4]C, _B, G, |
[V:1]_A E F |
[V:2]_A E F |
[V:3]_A E F |
[V:4]_A, E, F, |
[V:1]c3 |
[V:2]c3 |
[V:3]c3 |
[V:4]C3 |
[V:1]_E3 |
[V:2]_E3 |
[V:3]_E3 |
[V:4]_E,3 |
[V:1]D c A |
[V:2]D c A |
[V:3]D c A |
[V:4]D, C A, |
[V:1]B ^F G |
[V:2]B ^F G |
[V:3]B ^F G |
[V:4]B, ^F, G, |
[V:1]g3- |
[V:2]z ^F G |
[V:3]z D _E |
[V:4]G,, z2 |
[V:1]g3- |
[V:2]z E F |
[V:3]z ^C D |
[V:4]G,, z2 |
[V:1]g3- |
[V:2]z D _E |
[V:3]z B, C |
[V:4]G,, z2 |
[V:1]g3 |
[V:2]z ^C D |
[V:3]z A, B, |
[V:4]G,, z2 |
[V:1]G3- |
[V:2]z _E E |
[V:3]z C C |
[V:4]G,, z2 |
[V:1]G3 |
[V:2]z D D |
[V:3]z B, B, |
[V:4]G,, z2 |
[V:1]^F3 |
[V:2]z C C |
[V:3]z A, A, |
[V:4]G,, z2 |
[V:1]G z2 |
[V:2]B, z2 |
[V:3]G, z2 |
[V:4]G,, z2 |
[V:1]G z2 |
[V:2]B, z2 |
[V:3]G, z2 |
[V:4]G,, z2 |
[V:1]G z2 |]
[V:2]B, z2 |]
[V:3]G, z2 |]
[V:4]G,, z2 |]

